;FLAVOR:UltiGCode
;TIME:8231
;MATERIAL:19640
;MATERIAL2:0
;NOZZLE_DIAMETER:0.400000
;NOZZLE_DIAMETER2:0.400000

;Layer count: 25
;LAYER:0
M107
G0 F2400 X57.455 Y58.096 Z0.300
;TYPE:SKIRT
G1 F1200 X58.430 Y57.252 E0.15475
G1 X59.519 Y56.572 E0.30881
G1 X60.707 Y56.069 E0.46362
G1 X61.687 Y55.827 E0.58476
G1 X61.687 Y55.826 E0.58488
G1 X61.995 Y55.747 E0.62303
G1 X63.138 Y55.658 E0.76061
G1 X68.198 Y55.654 E1.36781
G1 X68.429 Y55.654 E1.39553
G1 X69.330 Y55.724 E1.50397
G1 X69.619 Y55.753 E1.53883
G1 X70.579 Y55.983 E1.65729
G1 X70.864 Y56.056 E1.69259
G1 X71.982 Y56.519 E1.83780
G1 X73.074 Y57.175 E1.99067
G1 X74.061 Y58.005 E2.14542
G1 X74.905 Y58.978 E2.29999
G1 X75.586 Y60.069 E2.45432
G1 X76.090 Y61.258 E2.60929
G1 X76.332 Y62.238 E2.73042
G1 X76.411 Y62.546 E2.76858
G1 X76.490 Y63.561 E2.89074
G1 X76.597 Y64.915 E3.05373
G1 X76.847 Y65.954 E3.18197
G1 X77.253 Y66.935 E3.30937
G1 X77.801 Y67.831 E3.43541
G1 X78.506 Y68.659 E3.56590
G1 X79.313 Y69.348 E3.69324
G1 X80.219 Y69.903 E3.82074
G1 X81.205 Y70.312 E3.94883
G1 X82.046 Y70.513 E4.05259
G1 X82.244 Y70.561 E4.07704
G1 X83.428 Y70.654 E4.21956
G1 X139.150 Y70.654 E10.90620
G1 X139.439 Y70.649 E10.94089
G1 X140.563 Y70.561 E11.07618
G1 X141.603 Y70.311 E11.20453
G1 X142.583 Y69.905 E11.33183
G1 X143.495 Y69.346 E11.46019
G1 X144.305 Y68.654 E11.58803
G1 X144.997 Y67.845 E11.71578
G1 X145.551 Y66.941 E11.84301
G1 X145.962 Y65.948 E11.97197
G1 X146.210 Y64.917 E12.09922
G1 X146.313 Y63.609 E12.25667
G1 X146.312 Y63.609 E12.25679
G1 X146.372 Y62.830 E12.35055
G1 X146.401 Y62.539 E12.38564
G1 X146.631 Y61.579 E12.50410
G1 X146.704 Y61.294 E12.53940
G1 X147.085 Y60.374 E12.65889
G1 X147.201 Y60.106 E12.69394
G1 X147.833 Y59.074 E12.83916
G1 X148.509 Y58.269 E12.96530
G1 X148.693 Y58.051 E12.99953
G1 X149.643 Y57.243 E13.14919
G1 X150.738 Y56.563 E13.30386
G1 X151.956 Y56.048 E13.46255
G1 X152.889 Y55.825 E13.57767
G1 X153.194 Y55.747 E13.61544
G1 X154.337 Y55.658 E13.75302
G1 X159.263 Y55.654 E14.34414
G1 X159.664 Y55.657 E14.39226
G1 X160.768 Y55.743 E14.52514
G1 X161.776 Y55.982 E14.64946
G1 X162.062 Y56.055 E14.68488
G1 X162.751 Y56.340 E14.77435
G1 X163.231 Y56.539 E14.83670
G1 X164.283 Y57.184 E14.98478
G1 X165.260 Y58.005 E15.13792
G1 X166.104 Y58.978 E15.29249
G1 X166.785 Y60.069 E15.44682
G1 X167.289 Y61.258 E15.60179
G1 X167.531 Y62.238 E15.72292
G1 X167.610 Y62.546 E15.76108
G1 X167.699 Y63.688 E15.89853
G1 X167.703 Y73.424 E17.06685
G1 X167.703 Y159.828 E27.43533
G1 X167.633 Y160.729 E27.54378
G1 X167.604 Y161.018 E27.57863
G1 X167.325 Y162.185 E27.72262
G1 X167.028 Y162.921 E27.81786
G1 X166.821 Y163.426 E27.88335
G1 X166.172 Y164.485 E28.03240
G1 X165.351 Y165.460 E28.18535
G1 X164.380 Y166.303 E28.33966
G1 X163.287 Y166.986 E28.49432
G1 X162.050 Y167.509 E28.65548
G1 X161.119 Y167.731 E28.77033
G1 X160.813 Y167.809 E28.80823
G1 X159.656 Y167.901 E28.94751
G1 X154.754 Y167.903 E29.53575
G1 X154.378 Y167.903 E29.58087
G1 X153.476 Y167.833 E29.68943
G1 X153.186 Y167.804 E29.72441
G1 X152.227 Y167.574 E29.84275
G1 X151.944 Y167.501 E29.87782
G1 X151.057 Y167.134 E29.99301
G1 X150.793 Y167.025 E30.02729
G1 X149.727 Y166.376 E30.17705
G1 X148.864 Y165.651 E30.31230
G1 X148.632 Y165.431 E30.35067
G1 X148.082 Y164.786 E30.45239
G1 X147.878 Y164.556 E30.48928
G1 X147.216 Y163.476 E30.64129
G1 X146.697 Y162.252 E30.80083
G1 X146.474 Y161.319 E30.91594
G1 X146.395 Y161.009 E30.95433
G1 X146.316 Y159.988 E31.07722
G1 X146.210 Y158.640 E31.23948
G1 X145.962 Y157.609 E31.36673
G1 X145.551 Y156.616 E31.49569
G1 X144.997 Y155.712 E31.62292
G1 X144.305 Y154.903 E31.75067
G1 X143.495 Y154.211 E31.87851
G1 X142.583 Y153.652 E32.00687
G1 X141.604 Y153.246 E32.13406
G1 X140.703 Y153.030 E32.24524
G1 X140.564 Y152.996 E32.26241
G1 X139.379 Y152.903 E32.40505
G1 X83.510 Y152.903 E39.10933
G1 X83.389 Y152.906 E39.12385
G1 X82.243 Y152.996 E39.26180
G1 X81.205 Y153.245 E39.38989
G1 X80.219 Y153.654 E39.51798
G1 X79.313 Y154.209 E39.64548
G1 X78.504 Y154.900 E39.77315
G1 X77.809 Y155.713 E39.90150
G1 X77.254 Y156.621 E40.02921
G1 X76.847 Y157.603 E40.15677
G1 X76.597 Y158.643 E40.28512
G1 X76.494 Y159.954 E40.44293
G1 X76.434 Y160.729 E40.53620
G1 X76.405 Y161.018 E40.57106
G1 X76.126 Y162.185 E40.71505
G1 X75.829 Y162.921 E40.81028
G1 X75.622 Y163.426 E40.87578
G1 X74.973 Y164.485 E41.02482
G1 X74.152 Y165.460 E41.17778
G1 X73.181 Y166.303 E41.33208
G1 X72.089 Y166.985 E41.48658
G1 X70.900 Y167.489 E41.64155
G1 X69.920 Y167.731 E41.76268
G1 X69.612 Y167.810 E41.80084
G1 X68.470 Y167.899 E41.93829
G1 X63.181 Y167.903 E42.57298
G1 X62.277 Y167.833 E42.68178
G1 X61.987 Y167.804 E42.71675
G1 X61.028 Y167.574 E42.83510
G1 X60.744 Y167.501 E42.87028
G1 X59.626 Y167.038 E43.01549
G1 X58.534 Y166.381 E43.16842
G1 X57.546 Y165.551 E43.32327
G1 X56.703 Y164.578 E43.47775
G1 X56.022 Y163.488 E43.63198
G1 X55.498 Y162.252 E43.79308
G1 X55.275 Y161.319 E43.90820
G1 X55.196 Y161.009 E43.94658
G1 X55.109 Y159.878 E44.08271
G1 X55.104 Y159.226 E44.16095
G1 X55.104 Y63.731 E55.62035
G1 X55.173 Y62.830 E55.72878
G1 X55.202 Y62.539 E55.76388
G1 X55.432 Y61.579 E55.88234
G1 X55.505 Y61.294 E55.91764
G1 X55.886 Y60.374 E56.03713
G1 X56.002 Y60.106 E56.07218
G1 X56.633 Y59.075 E56.21723
G1 X57.455 Y58.096 E56.37063
G10
G0 F2400 X60.171 Y60.771
;TYPE:WALL-INNER
G11
G1 F1200 X60.694 Y60.318 E56.45366
G1 X61.281 Y59.952 E56.53667
G1 X61.912 Y59.685 E56.61889
G1 X62.622 Y59.510 E56.70664
G1 X63.286 Y59.458 E56.78656
G1 X68.283 Y59.454 E57.38620
G1 X68.984 Y59.509 E57.47058
G1 X69.662 Y59.671 E57.55423
G1 X70.267 Y59.921 E57.63279
G1 X70.859 Y60.278 E57.71574
G1 X71.385 Y60.719 E57.79811
G1 X71.837 Y61.240 E57.88088
G1 X72.206 Y61.831 E57.96449
G1 X72.472 Y62.458 E58.04622
G1 X72.648 Y63.171 E58.13435
G1 X72.833 Y65.512 E58.41614
G1 X73.221 Y67.130 E58.61581
G1 X73.858 Y68.667 E58.81546
G1 X74.714 Y70.066 E59.01227
G1 X75.807 Y71.350 E59.21462
G1 X77.072 Y72.431 E59.41430
G1 X78.491 Y73.300 E59.61397
G1 X80.027 Y73.937 E59.81351
G1 X81.645 Y74.325 E60.01318
G1 X83.280 Y74.454 E60.20999
G1 X139.206 Y74.454 E66.92111
G1 X139.609 Y74.448 E66.96947
G1 X141.161 Y74.325 E67.15629
G1 X142.779 Y73.937 E67.35596
G1 X144.316 Y73.300 E67.55561
G1 X145.734 Y72.431 E67.75518
G1 X146.999 Y71.351 E67.95478
G1 X148.080 Y70.086 E68.15446
G1 X148.949 Y68.667 E68.35413
G1 X149.585 Y67.130 E68.55374
G1 X149.974 Y65.512 E68.75343
G1 X150.101 Y63.900 E68.94747
G1 X150.157 Y63.172 E69.03509
G1 X150.319 Y62.496 E69.11850
G1 X150.583 Y61.859 E69.20125
G1 X150.927 Y61.299 E69.28012
G1 X151.392 Y60.744 E69.36700
G1 X151.890 Y60.320 E69.44549
G1 X152.487 Y59.950 E69.52977
G1 X153.146 Y59.671 E69.61565
G1 X153.816 Y59.510 E69.69833
G1 X154.485 Y59.458 E69.77886
G1 X159.250 Y59.454 E70.35066
G1 X159.505 Y59.456 E70.38126
G1 X160.176 Y59.508 E70.46202
G1 X160.862 Y59.671 E70.54663
G1 X161.496 Y59.933 E70.62895
G1 X162.058 Y60.278 E70.70809
G1 X162.584 Y60.719 E70.79045
G1 X163.036 Y61.240 E70.87322
G1 X163.405 Y61.831 E70.95683
G1 X163.671 Y62.458 E71.03856
G1 X163.847 Y63.171 E71.12669
G1 X163.899 Y63.835 E71.20661
G1 X163.903 Y159.682 E82.70825
G1 X163.848 Y160.383 E82.79263
G1 X163.693 Y161.032 E82.87270
G1 X163.510 Y161.487 E82.93155
G1 X163.421 Y161.700 E82.95926
G1 X163.080 Y162.258 E83.03773
G1 X162.635 Y162.786 E83.12059
G1 X162.117 Y163.236 E83.20293
G1 X161.531 Y163.602 E83.28584
G1 X160.859 Y163.886 E83.37339
G1 X160.189 Y164.047 E83.45607
G1 X159.507 Y164.101 E83.53817
G1 X154.524 Y164.103 E84.13613
G1 X153.824 Y164.048 E84.22039
G1 X153.141 Y163.885 E84.30465
G1 X152.526 Y163.630 E84.38454
G1 X151.945 Y163.277 E84.46612
G1 X151.398 Y162.818 E84.55181
G1 X150.945 Y162.288 E84.63548
G1 X150.602 Y161.728 E84.71428
G1 X150.320 Y161.064 E84.80085
G1 X150.158 Y160.389 E84.88415
G1 X150.105 Y159.696 E84.96755
G1 X149.974 Y158.045 E85.16629
G1 X149.585 Y156.427 E85.36599
G1 X148.949 Y154.890 E85.56559
G1 X148.080 Y153.471 E85.76527
G1 X146.999 Y152.206 E85.96494
G1 X145.734 Y151.126 E86.16454
G1 X144.316 Y150.257 E86.36411
G1 X142.779 Y149.620 E86.56377
G1 X141.161 Y149.232 E86.76343
G1 X139.527 Y149.103 E86.96012
G1 X83.466 Y149.103 E93.68744
G1 X83.195 Y149.110 E93.71997
G1 X81.645 Y149.232 E93.90655
G1 X80.027 Y149.620 E94.10621
G1 X78.491 Y150.257 E94.30575
G1 X77.072 Y151.126 E94.50543
G1 X75.808 Y152.206 E94.70493
G1 X74.726 Y153.471 E94.90469
G1 X73.858 Y154.890 E95.10430
G1 X73.221 Y156.427 E95.30395
G1 X72.833 Y158.045 E95.50362
G1 X72.649 Y160.383 E95.78504
G1 X72.494 Y161.032 E95.86511
G1 X72.311 Y161.487 E95.92396
G1 X72.222 Y161.700 E95.95167
G1 X71.881 Y162.258 E96.03014
G1 X71.436 Y162.786 E96.11300
G1 X70.918 Y163.236 E96.19534
G1 X70.327 Y163.605 E96.27895
G1 X69.696 Y163.872 E96.36117
G1 X68.987 Y164.047 E96.44880
G1 X68.322 Y164.099 E96.52885
G1 X63.325 Y164.103 E97.12849
G1 X62.625 Y164.048 E97.21274
G1 X61.944 Y163.886 E97.29675
G1 X61.341 Y163.636 E97.37508
G1 X60.749 Y163.279 E97.45804
G1 X60.220 Y162.835 E97.54091
G1 X59.771 Y162.317 E97.62317
G1 X59.402 Y161.726 E97.70678
G1 X59.121 Y161.064 E97.79308
G1 X58.959 Y160.389 E97.87638
G1 X58.908 Y159.721 E97.95677
G1 X58.904 Y159.214 E98.01762
G1 X58.904 Y63.874 E109.45842
G1 X58.958 Y63.172 E109.54291
G1 X59.120 Y62.496 E109.62632
G1 X59.384 Y61.859 E109.70907
G1 X59.725 Y61.303 E109.78734
G1 X60.171 Y60.771 E109.87064
G0 F2400 X64.328 Y64.821
G1 F1200 X64.085 Y65.105 E109.91549
G1 X63.900 Y65.408 E109.95810
G1 X63.769 Y65.730 E109.99981
G1 X63.694 Y66.084 E110.04323
G1 X63.678 Y66.446 E110.08672
G1 X63.728 Y66.816 E110.13152
G1 X63.831 Y67.150 E110.17346
G1 X64.001 Y67.482 E110.21822
G1 X64.209 Y67.762 E110.26008
G1 X64.479 Y68.017 E110.30464
G1 X64.768 Y68.212 E110.34648
G1 X65.109 Y68.363 E110.39123
G1 X65.444 Y68.450 E110.43277
G1 X65.806 Y68.481 E110.47637
G1 X66.177 Y68.447 E110.52107
G1 X66.516 Y68.359 E110.56310
G1 X66.853 Y68.202 E110.60771
G1 X67.140 Y68.009 E110.64922
G1 X67.400 Y67.759 E110.69250
G1 X67.616 Y67.468 E110.73599
G1 X67.782 Y67.133 E110.78085
G1 X67.883 Y66.802 E110.82238
G1 X67.929 Y66.443 E110.86581
G1 X67.911 Y66.068 E110.91087
G1 X67.832 Y65.714 E110.95439
G1 X67.695 Y65.382 E110.99749
G1 X67.513 Y65.086 E111.03919
G1 X67.262 Y64.807 E111.08422
G1 X66.980 Y64.582 E111.12751
G1 X66.665 Y64.410 E111.17058
G1 X66.340 Y64.295 E111.21195
G1 X65.995 Y64.236 E111.25395
G1 X65.794 Y64.228 E111.27809
G1 X65.593 Y64.239 E111.30225
G1 X65.250 Y64.301 E111.34407
G1 X64.911 Y64.423 E111.38731
G1 X64.601 Y64.601 E111.43020
G1 X64.328 Y64.821 E111.47228
G0 F2400 X63.680 Y66.446
G0 X64.480 Y68.016
G0 X69.701 Y78.993
G1 F1200 X69.391 Y79.171 E111.51517
G1 X69.118 Y79.391 E111.55725
G1 X68.875 Y79.675 E111.60210
G1 X68.690 Y79.978 E111.64470
G1 X68.559 Y80.300 E111.68642
G1 X68.484 Y80.654 E111.72984
G1 X68.468 Y81.016 E111.77332
G1 X68.518 Y81.386 E111.81813
G1 X68.621 Y81.720 E111.86007
G1 X68.791 Y82.052 E111.90483
G1 X68.999 Y82.332 E111.94668
G1 X69.269 Y82.587 E111.99125
G1 X69.558 Y82.782 E112.03309
G1 X69.899 Y82.933 E112.07784
G1 X70.234 Y83.020 E112.11937
G1 X70.596 Y83.051 E112.16297
G1 X70.967 Y83.017 E112.20768
G1 X71.306 Y82.929 E112.24971
G1 X71.643 Y82.772 E112.29432
G1 X71.930 Y82.579 E112.33582
G1 X72.190 Y82.329 E112.37910
G1 X72.406 Y82.038 E112.42259
G1 X72.572 Y81.703 E112.46746
G1 X72.673 Y81.372 E112.50899
G1 X72.719 Y81.013 E112.55242
G1 X72.701 Y80.638 E112.59747
G1 X72.622 Y80.284 E112.64099
G1 X72.485 Y79.952 E112.68409
G1 X72.303 Y79.656 E112.72579
G1 X72.052 Y79.377 E112.77083
G1 X71.770 Y79.152 E112.81412
G1 X71.455 Y78.980 E112.85718
G1 X71.130 Y78.865 E112.89855
G1 X70.772 Y78.804 E112.94213
G1 X70.396 Y78.806 E112.98725
G1 X70.040 Y78.871 E113.03068
G1 X69.701 Y78.993 E113.07391
G0 F2400 X68.560 Y80.301
G0 X68.792 Y82.051
G0 X70.396 Y140.515
G1 F1200 X70.040 Y140.580 E113.11734
G1 X69.701 Y140.702 E113.16057
G1 X69.391 Y140.880 E113.20347
G1 X69.118 Y141.100 E113.24554
G1 X68.875 Y141.384 E113.29040
G1 X68.690 Y141.687 E113.33300
G1 X68.559 Y142.009 E113.37471
G1 X68.484 Y142.363 E113.41814
G1 X68.468 Y142.725 E113.46162
G1 X68.518 Y143.095 E113.50642
G1 X68.621 Y143.429 E113.54837
G1 X68.791 Y143.761 E113.59312
G1 X68.999 Y144.041 E113.63498
G1 X69.269 Y144.296 E113.67955
G1 X69.558 Y144.491 E113.72138
G1 X69.899 Y144.642 E113.76614
G1 X70.234 Y144.729 E113.80767
G1 X70.596 Y144.760 E113.85127
G1 X70.967 Y144.726 E113.89597
G1 X71.306 Y144.638 E113.93800
G1 X71.643 Y144.481 E113.98262
G1 X71.930 Y144.288 E114.02412
G1 X72.190 Y144.038 E114.06740
G1 X72.406 Y143.747 E114.11089
G1 X72.572 Y143.412 E114.15576
G1 X72.673 Y143.081 E114.19728
G1 X72.719 Y142.722 E114.24072
G1 X72.701 Y142.347 E114.28577
G1 X72.622 Y141.993 E114.32929
G1 X72.485 Y141.661 E114.37239
G1 X72.303 Y141.365 E114.41409
G1 X72.052 Y141.086 E114.45912
G1 X71.770 Y140.861 E114.50241
G1 X71.455 Y140.689 E114.54548
G1 X71.130 Y140.574 E114.58685
G1 X70.772 Y140.513 E114.63043
G1 X70.396 Y140.515 E114.67555
G0 F2400 X68.875 Y141.384
G0 X68.519 Y143.094
G0 X66.340 Y155.144
G1 F1200 X65.995 Y155.085 E114.71755
G1 X65.794 Y155.077 E114.74169
G1 X65.593 Y155.088 E114.76585
G1 X65.250 Y155.150 E114.80768
G1 X64.911 Y155.272 E114.85091
G1 X64.601 Y155.450 E114.89381
G1 X64.328 Y155.670 E114.93588
G1 X64.085 Y155.954 E114.98073
G1 X63.900 Y156.257 E115.02333
G1 X63.769 Y156.579 E115.06505
G1 X63.694 Y156.933 E115.10847
G1 X63.678 Y157.295 E115.15195
G1 X63.728 Y157.665 E115.19676
G1 X63.831 Y157.999 E115.23870
G1 X64.001 Y158.331 E115.28346
G1 X64.209 Y158.611 E115.32532
G1 X64.479 Y158.866 E115.36988
G1 X64.768 Y159.061 E115.41172
G1 X65.109 Y159.212 E115.45647
G1 X65.444 Y159.299 E115.49800
G1 X65.806 Y159.330 E115.54160
G1 X66.177 Y159.296 E115.58631
G1 X66.516 Y159.208 E115.62834
G1 X66.853 Y159.051 E115.67295
G1 X67.140 Y158.858 E115.71445
G1 X67.400 Y158.608 E115.75774
G1 X67.616 Y158.317 E115.80123
G1 X67.782 Y157.982 E115.84609
G1 X67.883 Y157.651 E115.88762
G1 X67.929 Y157.292 E115.93105
G1 X67.911 Y156.917 E115.97610
G1 X67.832 Y156.563 E116.01963
G1 X67.695 Y156.231 E116.06273
G1 X67.513 Y155.935 E116.10442
G1 X67.262 Y155.656 E116.14946
G1 X66.980 Y155.431 E116.19275
G1 X66.665 Y155.259 E116.23582
G1 X66.340 Y155.144 E116.27719
G0 F2400 X80.028 Y149.620
G0 X83.466 Y149.103
G0 X145.417 Y143.095
G1 F1200 X145.520 Y143.429 E116.31913
G1 X145.690 Y143.761 E116.36389
G1 X145.898 Y144.041 E116.40574
G1 X146.168 Y144.296 E116.45031
G1 X146.457 Y144.491 E116.49215
G1 X146.798 Y144.642 E116.53690
G1 X147.133 Y144.729 E116.57843
G1 X147.495 Y144.760 E116.62203
G1 X147.866 Y144.726 E116.66674
G1 X148.205 Y144.638 E116.70877
G1 X148.542 Y144.481 E116.75338
G1 X148.829 Y144.288 E116.79488
G1 X149.089 Y144.038 E116.83817
G1 X149.305 Y143.747 E116.88165
G1 X149.471 Y143.412 E116.92652
G1 X149.572 Y143.081 E116.96805
G1 X149.618 Y142.722 E117.01148
G1 X149.600 Y142.347 E117.05653
G1 X149.521 Y141.993 E117.10006
G1 X149.384 Y141.661 E117.14316
G1 X149.202 Y141.365 E117.18485
G1 X148.951 Y141.086 E117.22989
G1 X148.669 Y140.861 E117.27318
G1 X148.354 Y140.689 E117.31625
G1 X148.029 Y140.574 E117.35762
G1 X147.671 Y140.513 E117.40120
G1 X147.295 Y140.515 E117.44632
G1 X146.939 Y140.580 E117.48974
G1 X146.600 Y140.702 E117.53298
G1 X146.290 Y140.880 E117.57587
G1 X146.017 Y141.100 E117.61795
G1 X145.774 Y141.384 E117.66280
G1 X145.589 Y141.687 E117.70540
G1 X145.458 Y142.009 E117.74712
G1 X145.383 Y142.363 E117.79054
G1 X145.367 Y142.725 E117.83402
G1 X145.417 Y143.095 E117.87882
G0 F2400 X145.899 Y144.040
G0 X155.527 Y155.670
G1 F1200 X155.284 Y155.954 E117.92368
G1 X155.099 Y156.257 E117.96628
G1 X154.968 Y156.579 E118.00799
G1 X154.893 Y156.933 E118.05142
G1 X154.877 Y157.295 E118.09490
G1 X154.927 Y157.665 E118.13970
G1 X155.030 Y157.999 E118.18165
G1 X155.200 Y158.331 E118.22640
G1 X155.408 Y158.611 E118.26826
G1 X155.678 Y158.866 E118.31283
G1 X155.967 Y159.061 E118.35466
G1 X156.308 Y159.212 E118.39942
G1 X156.643 Y159.299 E118.44095
G1 X157.005 Y159.330 E118.48455
G1 X157.376 Y159.296 E118.52925
G1 X157.715 Y159.208 E118.57128
G1 X158.052 Y159.051 E118.61590
G1 X158.339 Y158.858 E118.65740
G1 X158.599 Y158.608 E118.70068
