;FLAVOR:UltiGCode
;TIME:15303
;MATERIAL:31034
;MATERIAL2:0
;NOZZLE_DIAMETER:0.400000
;NOZZLE_DIAMETER2:0.400000

;Layer count: 120
;LAYER:0
M107
G0 F2400 X58.094 Y56.269 Z0.300
G0 X58.490 Y56.071
;TYPE:SKIRT
G1 F1200 X59.009 Y55.553 E0.08799
G1 X61.322 Y54.976 E0.37406
G1 X71.421 Y54.976 E1.58594
G1 X73.210 Y55.870 E1.82593
G1 X76.601 Y59.262 E2.40149
G1 X76.601 Y59.461 E2.42537
G1 X76.801 Y59.661 E2.45931
G1 X76.801 Y60.261 E2.53131
G1 X77.001 Y60.461 E2.56525
G1 X77.001 Y61.861 E2.73325
G1 X77.201 Y62.061 E2.76719
G1 X77.201 Y63.261 E2.91119
G1 X77.401 Y63.461 E2.94513
G1 X77.401 Y64.061 E3.01713
G1 X77.601 Y64.261 E3.05107
G1 X77.601 Y64.861 E3.12307
G1 X77.801 Y65.061 E3.15701
G1 X77.801 Y65.261 E3.18101
G1 X78.001 Y65.461 E3.21496
G1 X78.001 Y65.660 E3.23884
G1 X78.899 Y66.558 E3.39123
G1 X78.665 Y67.126 E3.46495
G1 X79.001 Y67.462 E3.52197
G1 X79.001 Y67.662 E3.54597
G1 X80.681 Y69.346 E3.83141
G1 X80.255 Y70.375 E3.96506
G1 X142.564 Y70.375 E11.44214
G1 X142.220 Y69.544 E11.55006
G1 X143.501 Y68.261 E11.76763
G1 X143.501 Y68.061 E11.79163
G1 X143.701 Y67.861 E11.82557
G1 X143.701 Y67.663 E11.84933
G1 X144.501 Y66.862 E11.98518
G1 X144.501 Y66.461 E12.03330
G1 X144.701 Y66.261 E12.06724
G1 X144.701 Y66.061 E12.09124
G1 X144.901 Y65.861 E12.12518
G1 X144.901 Y65.661 E12.14918
G1 X145.101 Y65.461 E12.18312
G1 X145.101 Y65.061 E12.23112
G1 X145.301 Y64.861 E12.26506
G1 X145.301 Y64.261 E12.33706
G1 X145.501 Y64.061 E12.37100
G1 X145.501 Y62.061 E12.61100
G1 X145.701 Y61.861 E12.64494
G1 X145.701 Y61.261 E12.71694
G1 X145.901 Y61.061 E12.75089
G1 X145.901 Y60.461 E12.82289
G1 X146.101 Y60.261 E12.85683
G1 X146.101 Y59.665 E12.92835
G1 X146.501 Y59.264 E12.99631
G1 X146.501 Y59.062 E13.02055
G1 X149.294 Y56.269 E13.49454
G1 X149.690 Y56.071 E13.54767
G1 X150.209 Y55.553 E13.63566
G1 X152.522 Y54.976 E13.92173
G1 X162.621 Y54.976 E15.13361
G1 X164.410 Y55.870 E15.37360
G1 X167.801 Y59.262 E15.94916
G1 X167.801 Y59.461 E15.97304
G1 X168.001 Y59.661 E16.00698
G1 X168.001 Y60.261 E16.07898
G1 X168.201 Y60.461 E16.11292
G1 X168.201 Y74.511 E17.79892
G1 X167.799 Y74.518 E17.84717
G1 X167.799 Y148.051 E26.67113
G1 X168.201 Y148.060 E26.71938
G1 X168.201 Y162.291 E28.42710
G1 X168.001 Y162.491 E28.46104
G1 X168.001 Y163.091 E28.53304
G1 X167.801 Y163.291 E28.56698
G1 X167.801 Y163.490 E28.59086
G1 X164.410 Y166.881 E29.16633
G1 X162.522 Y167.826 E29.41969
G1 X160.421 Y168.176 E29.67528
G1 X154.124 Y168.176 E30.43092
G1 X151.825 Y167.846 E30.70963
G1 X149.894 Y166.885 E30.96846
G1 X149.690 Y166.681 E31.00308
G1 X149.294 Y166.483 E31.05621
G1 X146.501 Y163.690 E31.53020
G1 X146.501 Y163.488 E31.55444
G1 X146.101 Y163.087 E31.62241
G1 X146.101 Y162.491 E31.69393
G1 X145.901 Y162.291 E31.72787
G1 X145.901 Y161.891 E31.77587
G1 X145.701 Y161.691 E31.80981
G1 X145.701 Y161.091 E31.88181
G1 X145.501 Y160.891 E31.91575
G1 X145.501 Y158.691 E32.17975
G1 X145.301 Y158.491 E32.21369
G1 X145.301 Y157.891 E32.28569
G1 X145.101 Y157.691 E32.31963
G1 X145.101 Y157.291 E32.36763
G1 X144.901 Y157.091 E32.40157
G1 X144.901 Y156.891 E32.42557
G1 X144.701 Y156.691 E32.45951
G1 X144.701 Y156.491 E32.48351
G1 X144.501 Y156.291 E32.51745
G1 X144.501 Y156.091 E32.54145
G1 X144.301 Y155.891 E32.57540
G1 X144.301 Y155.689 E32.59964
G1 X143.701 Y155.088 E32.70154
G1 X143.701 Y154.890 E32.72530
G1 X142.021 Y153.206 E33.01075
G1 X142.262 Y152.624 E33.08634
G1 X80.723 Y152.624 E40.47102
G1 X80.883 Y153.010 E40.52116
G1 X80.001 Y153.892 E40.67084
G1 X80.001 Y154.090 E40.69460
G1 X79.001 Y155.091 E40.86439
G1 X79.001 Y155.490 E40.91227
G1 X78.401 Y156.091 E41.01418
G1 X78.401 Y156.291 E41.03818
G1 X78.201 Y156.491 E41.07212
G1 X78.201 Y159.098 E41.38496
G1 X77.401 Y159.114 E41.48098
G1 X77.401 Y159.291 E41.50222
G1 X77.201 Y159.491 E41.53616
G1 X77.201 Y160.891 E41.70416
G1 X77.001 Y161.091 E41.73810
G1 X77.001 Y162.291 E41.88210
G1 X76.801 Y162.491 E41.91604
G1 X76.801 Y163.091 E41.98804
G1 X76.601 Y163.291 E42.02199
G1 X76.601 Y163.490 E42.04587
G1 X73.210 Y166.881 E42.62134
G1 X71.322 Y167.826 E42.87469
G1 X69.221 Y168.176 E43.13029
G1 X62.924 Y168.176 E43.88593
G1 X60.625 Y167.846 E44.16463
G1 X58.694 Y166.885 E44.42346
G1 X58.490 Y166.681 E44.45808
G1 X58.094 Y166.483 E44.51121
G1 X55.301 Y163.690 E44.98520
G1 X55.301 Y163.488 E45.00944
G1 X54.901 Y163.087 E45.07741
G1 X54.901 Y162.491 E45.14893
G1 X54.701 Y162.291 E45.18287
G1 X54.701 Y148.176 E46.87667
G1 X55.201 Y148.176 E46.93667
G1 X55.201 Y74.502 E55.77755
G1 X54.701 Y74.491 E55.83756
G1 X54.701 Y60.461 E57.52116
G1 X54.901 Y60.261 E57.55511
G1 X54.901 Y59.665 E57.62663
G1 X55.301 Y59.264 E57.69459
G1 X55.301 Y59.062 E57.71883
G1 X58.094 Y56.269 E58.19282
G1 X58.490 Y56.071 E58.24595
G10
G0 F2400 X59.001 Y74.175
;TYPE:WALL-INNER
G11
G1 F1200 X163.999 Y74.175 E70.84571
G1 X163.999 Y148.824 E79.80359
G1 X59.001 Y148.824 E92.40335
G1 X59.001 Y74.175 E101.36123
G0 F2400 X74.900 Y82.971
G1 F1200 X74.900 Y107.095 E104.25611
G1 X78.100 Y107.095 E104.64011
G1 X78.100 Y82.971 E107.53499
G1 X74.900 Y82.971 E107.91899
G0 F2400 X84.900 Y82.971
G1 F1200 X84.900 Y107.095 E110.81387
G1 X88.100 Y107.095 E111.19787
G1 X88.100 Y82.971 E114.09275
G1 X84.900 Y82.971 E114.47675
G0 F2400 X94.900 Y82.971
G1 F1200 X94.900 Y107.095 E117.37163
G1 X98.100 Y107.095 E117.75563
G1 X98.100 Y82.971 E120.65051
G1 X94.900 Y82.971 E121.03451
G0 F2400 X104.900 Y82.971
G1 F1200 X104.900 Y107.095 E123.92939
G1 X108.100 Y107.095 E124.31339
G1 X108.100 Y82.971 E127.20827
G1 X104.900 Y82.971 E127.59227
G0 F2400 X114.900 Y82.971
G1 F1200 X114.900 Y107.095 E130.48715
G1 X118.099 Y107.095 E130.87103
G1 X118.099 Y82.971 E133.76591
G1 X114.900 Y82.971 E134.14979
G0 F2400 X124.900 Y82.971
G1 F1200 X124.900 Y107.095 E137.04467
G1 X128.100 Y107.095 E137.42867
G1 X128.100 Y82.971 E140.32355
G1 X124.900 Y82.971 E140.70755
G0 F2400 X134.899 Y82.971
G1 F1200 X134.899 Y107.095 E143.60243
G1 X138.100 Y107.095 E143.98655
G1 X138.100 Y82.971 E146.88143
G1 X134.899 Y82.971 E147.26555
G0 F2400 X144.900 Y82.971
G1 F1200 X144.900 Y107.095 E150.16043
G1 X148.100 Y107.095 E150.54443
G1 X148.100 Y82.971 E153.43931
G1 X144.900 Y82.971 E153.82331
G0 F2400 X144.900 Y115.900
G1 F1200 X144.900 Y140.024 E156.71819
G1 X148.100 Y140.024 E157.10219
G1 X148.100 Y115.900 E159.99707
G1 X144.900 Y115.900 E160.38107
G0 F2400 X138.100 Y115.900
G1 F1200 X134.899 Y115.900 E160.76519
G1 X134.899 Y140.024 E163.66007
G1 X138.100 Y140.024 E164.04419
G1 X138.100 Y115.900 E166.93907
G0 F2400 X128.100 Y115.900
G1 F1200 X124.900 Y115.900 E167.32307
G1 X124.900 Y140.024 E170.21795
G1 X128.100 Y140.024 E170.60195
G1 X128.100 Y115.900 E173.49683
G0 F2400 X118.099 Y115.900
G1 F1200 X114.900 Y115.900 E173.88071
G1 X114.900 Y140.024 E176.77559
G1 X118.099 Y140.024 E177.15947
G1 X118.099 Y115.900 E180.05435
G0 F2400 X108.100 Y115.900
G1 F1200 X104.900 Y115.900 E180.43835
G1 X104.900 Y140.024 E183.33323
G1 X108.100 Y140.024 E183.71723
G1 X108.100 Y115.900 E186.61211
G0 F2400 X98.100 Y115.900
G1 F1200 X94.900 Y115.900 E186.99611
G1 X94.900 Y140.024 E189.89099
G1 X98.100 Y140.024 E190.27499
G1 X98.100 Y115.900 E193.16987
G0 F2400 X88.100 Y115.900
G1 F1200 X84.900 Y115.900 E193.55387
G1 X84.900 Y140.024 E196.44875
G1 X88.100 Y140.024 E196.83275
G1 X88.100 Y115.900 E199.72763
G0 F2400 X78.100 Y115.900
G1 F1200 X74.900 Y115.900 E200.11163
G1 X74.900 Y140.024 E203.00651
G1 X78.100 Y140.024 E203.39051
G1 X78.100 Y115.900 E206.28539
G0 F2400 X77.700 Y116.300
;TYPE:WALL-OUTER
G1 F1200 X75.300 Y116.300 E206.57339
G1 X75.300 Y139.624 E209.37227
G1 X77.700 Y139.624 E209.66027
G1 X77.700 Y116.300 E212.45915
G0 F2400 X77.700 Y116.000
G0 X85.300 Y116.000
G0 X85.300 Y116.300
G1 F1200 X85.300 Y139.624 E215.25803
G1 X87.700 Y139.624 E215.54603
G1 X87.700 Y116.300 E218.34491
G1 X85.300 Y116.300 E218.63291
G0 F2400 X85.300 Y116.000
G0 X85.000 Y106.695
G0 X85.300 Y106.695
G1 F1200 X87.700 Y106.695 E218.92091
G1 X87.700 Y83.371 E221.71979
G1 X85.300 Y83.371 E222.00779
G1 X85.300 Y106.695 E224.80667
G0 F2400 X85.000 Y106.695
G0 X77.700 Y106.995
G0 X77.700 Y106.695
G1 F1200 X77.700 Y83.371 E227.60555
G1 X75.300 Y83.371 E227.89355
G1 X75.300 Y106.695 E230.69243
G1 X77.700 Y106.695 E230.98043
G0 F2400 X77.700 Y106.995
G0 X84.899 Y106.870
G0 X84.959 Y83.030
G0 X88.041 Y83.030
G0 X95.000 Y106.695
G0 X95.300 Y106.695
G1 F1200 X97.700 Y106.695 E231.26843
G1 X97.700 Y83.371 E234.06731
G1 X95.300 Y83.371 E234.35531
G1 X95.300 Y106.695 E237.15419
G0 F2400 X95.000 Y106.695
G0 X95.300 Y116.000
G0 X95.300 Y116.300
G1 F1200 X95.300 Y139.624 E239.95307
G1 X97.700 Y139.624 E240.24107
G1 X97.700 Y116.300 E243.03995
G1 X95.300 Y116.300 E243.32795
G0 F2400 X95.300 Y116.000
G0 X105.300 Y116.000
G0 X105.300 Y116.300
G1 F1200 X105.300 Y139.624 E246.12683
G1 X107.700 Y139.624 E246.41483
G1 X107.700 Y116.300 E249.21371
G1 X105.300 Y116.300 E249.50171
G0 F2400 X105.300 Y116.000
G0 X105.000 Y106.695
G0 X105.300 Y106.695
G1 F1200 X107.700 Y106.695 E249.78971
G1 X107.700 Y83.371 E252.58859
G1 X105.300 Y83.371 E252.87659
G1 X105.300 Y106.695 E255.67547
G0 F2400 X105.000 Y106.695
G0 X104.959 Y83.030
G0 X108.041 Y83.030
G0 X115.000 Y106.695
G0 X115.300 Y106.695
G1 F1200 X117.699 Y106.695 E255.96335
G1 X117.699 Y83.371 E258.76223
G1 X115.300 Y83.371 E259.05011
G1 X115.300 Y106.695 E261.84899
G0 F2400 X115.000 Y106.695
G0 X115.300 Y116.000
G0 X115.300 Y116.300
G1 F1200 X115.300 Y139.624 E264.64787
G1 X117.699 Y139.624 E264.93575
G1 X117.699 Y116.300 E267.73463
G1 X115.300 Y116.300 E268.02251
G0 F2400 X115.300 Y116.000
G0 X125.300 Y116.000
G0 X125.300 Y116.300
G1 F1200 X125.300 Y139.624 E270.82139
G1 X127.700 Y139.624 E271.10939
G1 X127.700 Y116.300 E273.90827
G1 X125.300 Y116.300 E274.19627
G0 F2400 X125.300 Y116.000
G0 X125.000 Y106.695
G0 X125.300 Y106.695
G1 F1200 X127.700 Y106.695 E274.48427
G1 X127.700 Y83.371 E277.28315
G1 X125.300 Y83.371 E277.57115
G1 X125.300 Y106.695 E280.37003
G0 F2400 X125.000 Y106.695
G0 X124.959 Y83.030
G0 X128.041 Y83.030
G0 X134.999 Y106.695
G0 X135.299 Y106.695
G1 F1200 X137.700 Y106.695 E280.65815
G1 X137.700 Y83.371 E283.45703
G1 X135.299 Y83.371 E283.74515
G1 X135.299 Y106.695 E286.54403
G0 F2400 X134.999 Y106.695
G0 X135.299 Y116.000
G0 X135.299 Y116.300
G1 F1200 X135.299 Y139.624 E289.34291
G1 X137.700 Y139.624 E289.63103
G1 X137.700 Y116.300 E292.42991
G1 X135.299 Y116.300 E292.71803
G0 F2400 X135.299 Y116.000
G0 X145.300 Y116.000
G0 X145.300 Y116.300
G1 F1200 X145.300 Y139.624 E295.51691
G1 X147.700 Y139.624 E295.80491
G1 X147.700 Y116.300 E298.60379
G1 X145.300 Y116.300 E298.89179
G0 F2400 X145.300 Y116.000
G0 X145.000 Y106.695
G0 X145.300 Y106.695
G1 F1200 X147.700 Y106.695 E299.17979
G1 X147.700 Y83.371 E301.97867
G1 X145.300 Y83.371 E302.26667
G1 X145.300 Y106.695 E305.06555
G0 F2400 X145.000 Y106.695
G0 X144.959 Y83.030
G0 X148.041 Y83.030
G0 X164.099 Y73.985
G0 X164.399 Y73.775
G1 F1200 X164.399 Y149.224 E314.11943
G1 X58.601 Y149.224 E326.81519
G1 X58.601 Y73.775 E335.86907
G1 X164.399 Y73.775 E348.56483
G0 F2400 X163.410 Y74.314
;TYPE:SKIN
G1 F1200 X163.858 Y74.763 E348.64094
G0 F2400 X163.858 Y75.328
G1 F1200 X162.844 Y74.314 E348.81302
G0 F2400 X162.278 Y74.314
G1 F1200 X163.858 Y75.894 E349.08116
G0 F2400 X163.858 Y76.460
G1 F1200 X161.713 Y74.314 E349.44526
G0 F2400 X161.147 Y74.314
G1 F1200 X163.858 Y77.025 E349.90533
G0 F2400 X163.858 Y77.591
G1 F1200 X160.581 Y74.314 E350.46146
G0 F2400 X160.016 Y74.314
G1 F1200 X163.858 Y78.157 E351.11355
G0 F2400 X163.858 Y78.722
G1 F1200 X159.450 Y74.314 E351.86162
G0 F2400 X158.884 Y74.314
G1 F1200 X163.858 Y79.288 E352.70573
G0 F2400 X163.858 Y79.854
G1 F1200 X158.319 Y74.314 E353.64582
G0 F2400 X157.753 Y74.314
G1 F1200 X163.858 Y80.419 E354.68187
G0 F2400 X163.858 Y80.985
G1 F1200 X157.187 Y74.314 E355.81397
G0 F2400 X156.622 Y74.314
G1 F1200 X163.858 Y81.551 E357.04205
G0 F2400 X163.858 Y82.117
G1 F1200 X156.056 Y74.314 E358.36618
G0 F2400 X155.490 Y74.314
G1 F1200 X163.858 Y82.682 E359.78627
G0 F2400 X163.858 Y83.248
G1 F1200 X154.924 Y74.314 E361.30242
G0 F2400 X154.359 Y74.314
G1 F1200 X163.858 Y83.814 E362.91454
G0 F2400 X163.858 Y84.379
G1 F1200 X153.793 Y74.314 E364.62263
G0 F2400 X153.227 Y74.314
G1 F1200 X163.858 Y84.945 E366.42677
G0 F2400 X163.858 Y85.511
G1 F1200 X152.662 Y74.314 E368.32688
G0 F2400 X152.096 Y74.314
G1 F1200 X163.858 Y86.076 E370.32296
G0 F2400 X163.858 Y86.642
G1 F1200 X151.530 Y74.314 E372.41509
G0 F2400 X150.965 Y74.314
G1 F1200 X163.858 Y87.208 E374.60319
G0 F2400 X163.858 Y87.773
G1 F1200 X150.399 Y74.314 E376.88726
G0 F2400 X149.833 Y74.314
G1 F1200 X163.858 Y88.339 E379.26738
G0 F2400 X163.858 Y88.905
G1 F1200 X149.268 Y74.314 E381.74347
G0 F2400 X148.702 Y74.314
G1 F1200 X163.858 Y89.470 E384.31553
G0 F2400 X163.858 Y90.036
G1 F1200 X148.136 Y74.314 E386.98364
G0 F2400 X147.571 Y74.314
G1 F1200 X163.858 Y90.602 E389.74772
G0 F2400 X163.858 Y91.167
G1 F1200 X147.005 Y74.314 E392.60777
G0 F2400 X146.439 Y74.314
G1 F1200 X163.858 Y91.733 E395.56387
G0 F2400 X163.858 Y92.299
G1 F1200 X145.874 Y74.314 E398.61594
G0 F2400 X145.308 Y74.314
G1 F1200 X163.858 Y92.865 E401.76406
G0 F2400 X163.858 Y93.430
G1 F1200 X144.742 Y74.314 E405.00816
G0 F2400 X144.176 Y74.314
G1 F1200 X163.858 Y93.996 E408.34830
G0 F2400 X163.858 Y94.562
G1 F1200 X143.611 Y74.314 E411.78442
G0 F2400 X143.045 Y74.314
G1 F1200 X163.858 Y95.127 E415.31650
G0 F2400 X163.858 Y95.693
G1 F1200 X142.479 Y74.314 E418.94464
G0 F2400 X141.914 Y74.314
G1 F1200 X163.858 Y96.259 E422.66874
G0 F2400 X163.858 Y96.824
G1 F1200 X141.348 Y74.314 E426.48882
G0 F2400 X140.782 Y74.314
G1 F1200 X163.858 Y97.390 E430.40494
G0 F2400 X163.858 Y97.956
G1 F1200 X140.217 Y74.314 E434.41704
G0 F2400 X139.651 Y74.314
G1 F1200 X148.167 Y82.830 E435.86225
G0 F2400 X148.239 Y82.902
G1 F1200 X163.858 Y98.521 E438.51288
G0 F2400 X163.858 Y99.087
G1 F1200 X148.239 Y83.468 E441.16352
G0 F2400 X148.239 Y84.033
G1 F1200 X163.858 Y99.653 E443.81423
G0 F2400 X163.858 Y100.218
G1 F1200 X148.239 Y84.599 E446.46487
G0 F2400 X148.239 Y85.165
G1 F1200 X163.858 Y100.784 E449.11550
G0 F2400 X163.858 Y101.350
G1 F1200 X148.239 Y85.731 E451.76613
G0 F2400 X148.239 Y86.296
G1 F1200 X163.858 Y101.916 E454.41685
G0 F2400 X163.858 Y102.481
G1 F1200 X148.239 Y86.862 E457.06748
G0 F2400 X148.239 Y87.428
G1 F1200 X163.858 Y103.047 E459.71811
G0 F2400 X163.858 Y103.613
G1 F1200 X148.239 Y87.993 E462.36883
G0 F2400 X148.239 Y88.559
G1 F1200 X163.858 Y104.178 E465.01946
G0 F2400 X163.858 Y104.744
G1 F1200 X148.239 Y89.125 E467.67009
G0 F2400 X148.239 Y89.690
G1 F1200 X163.858 Y105.310 E470.32081
G0 F2400 X163.858 Y105.875
G1 F1200 X148.239 Y90.256 E472.97144
G0 F2400 X148.239 Y90.822
G1 F1200 X163.858 Y106.441 E475.62207
G0 F2400 X163.858 Y107.007
G1 F1200 X148.239 Y91.387 E478.27279
G0 F2400 X148.239 Y91.953
G1 F1200 X163.858 Y107.572 E480.92342
G0 F2400 X163.858 Y108.138
G1 F1200 X148.239 Y92.519 E483.57406
G0 F2400 X148.239 Y93.084
G1 F1200 X163.858 Y108.704 E486.22477
G0 F2400 X163.858 Y109.269
G1 F1200 X148.239 Y93.650 E488.87541
G0 F2400 X148.239 Y94.216
G1 F1200 X163.858 Y109.835 E491.52604
G0 F2400 X163.858 Y110.401
G1 F1200 X148.239 Y94.782 E494.17667
G0 F2400 X148.239 Y95.347
G1 F1200 X163.858 Y110.966 E496.82730
G0 F2400 X163.858 Y111.532
G1 F1200 X148.239 Y95.913 E499.47793
G0 F2400 X148.239 Y96.479
G1 F1200 X163.858 Y112.098 E502.12857
G0 F2400 X163.858 Y112.664
G1 F1200 X148.239 Y97.044 E504.77928
G0 F2400 X148.239 Y97.610
G1 F1200 X163.858 Y113.229 E507.42992
G0 F2400 X163.858 Y113.795
G1 F1200 X148.239 Y98.176 E510.08055
G0 F2400 X148.239 Y98.741
G1 F1200 X163.858 Y114.361 E512.73127
G0 F2400 X163.858 Y114.926
G1 F1200 X148.239 Y99.307 E515.38190
G0 F2400 X148.239 Y99.873
G1 F1200 X163.858 Y115.492 E518.03253
G0 F2400 X163.858 Y116.058
G1 F1200 X148.239 Y100.438 E520.68325
G0 F2400 X148.239 Y101.004
G1 F1200 X163.858 Y116.623 E523.33388
G0 F2400 X163.858 Y117.189
G1 F1200 X148.239 Y101.570 E525.98451
G0 F2400 X148.239 Y102.135
G1 F1200 X163.858 Y117.755 E528.63523
G0 F2400 X163.858 Y118.320
G1 F1200 X148.239 Y102.701 E531.28586
G0 F2400 X148.239 Y103.267
